src/assets/icons/help.svg

<svg width="16" height="16" viewBox="0 0 16 16" fill="none" xmlns="http://www.w3.org/2000/svg">
<g clip-path="url(#clip0_8874_15275)">
<path d="M7.55191 3.22475C7.12118 3.29618 6.70385 3.48372 6.35268 3.76367C6.20223 3.8836 5.98267 4.1141 5.86484 4.27577C5.52798 4.73797 5.32333 5.37479 5.34029 5.90801C5.34561 6.0754 5.35176 6.10561 5.40229 6.21244C5.46544 6.34596 5.57557 6.46024 5.70677 6.52842C5.81885 6.58666 6.04621 6.60077 6.17187 6.55728C6.30011 6.5129 6.41094 6.42805 6.49373 6.31091C6.58437 6.18262 6.59952 6.1303 6.62053 5.87293C6.62961 5.76179 6.64916 5.6215 6.66398 5.56118C6.77377 5.11436 7.15153 4.71415 7.58611 4.5843C7.78233 4.52565 8.12513 4.52565 8.32135 4.5843C8.75788 4.71472 9.12583 5.10552 9.2469 5.56733C9.29006 5.73195 9.29008 6.12321 9.24693 6.271C9.15238 6.59485 9.00909 6.81878 8.76913 7.01766C8.55548 7.19478 8.31113 7.28588 7.98102 7.31155C7.80855 7.32496 7.76553 7.3349 7.67169 7.38304C7.48172 7.48047 7.35054 7.66857 7.32023 7.88698C7.29991 8.03327 7.30007 9.10597 7.32041 9.25261C7.3514 9.47588 7.49167 9.66979 7.69352 9.76835C7.77806 9.80963 7.81328 9.8161 7.95373 9.8161C8.09418 9.8161 8.1294 9.80963 8.21394 9.76835C8.41579 9.66979 8.55607 9.47588 8.58705 9.25261C8.5957 9.1902 8.60297 9.01088 8.60319 8.85411L8.60358 8.56908L8.76169 8.51653C8.97078 8.44705 9.2774 8.28658 9.46742 8.14719C9.65747 8.00778 9.94731 7.70798 10.0793 7.5143C10.4012 7.04182 10.5687 6.49673 10.5695 5.91897C10.5713 4.57272 9.62449 3.42867 8.33845 3.22321C8.15045 3.19318 7.73747 3.19398 7.55191 3.22475Z" fill="currentColor"/>
<path d="M7.7361 10.2782C7.41266 10.3598 7.13207 10.6516 7.05674 10.9846C6.98217 11.3142 7.06055 11.6251 7.28025 11.8714C7.46834 12.0822 7.6787 12.178 7.95373 12.178C8.22876 12.178 8.43913 12.0822 8.62721 11.8714C8.84691 11.6251 8.92529 11.3142 8.85073 10.9846C8.7738 10.6446 8.47498 10.3427 8.14525 10.272C8.0282 10.2469 7.84929 10.2496 7.7361 10.2782Z" fill="currentColor"/>
<path fill-rule="evenodd" clip-rule="evenodd" d="M2.84103 14.1161C4.18693 15.2315 5.75491 15.8644 7.45766 15.9796C9.36219 16.1085 11.2769 15.5414 12.7924 14.3995C13.1227 14.1506 13.3146 13.9823 13.6485 13.6484C13.9824 13.3145 14.1507 13.1227 14.3996 12.7924C16.072 10.5728 16.4617 7.60227 15.4202 5.01251C15.1022 4.22168 14.6859 3.52855 14.1161 2.84098C13.9336 2.62067 13.3718 2.05891 13.1515 1.87635C11.7968 0.753718 10.23 0.125394 8.50231 0.0119271C6.61448 -0.112073 4.7088 0.456166 3.20011 1.59292C2.86979 1.8418 2.67798 2.01009 2.34406 2.34401C2.01014 2.67793 1.84186 2.86974 1.59297 3.20005C0.358278 4.83873 -0.194983 6.91425 0.0546742 8.97084C0.241511 10.51 0.855984 11.9201 1.8764 13.1515C2.05896 13.3718 2.62072 13.9335 2.84103 14.1161ZM4.05167 12.8932C5.08706 13.7174 6.31578 14.1921 7.61581 14.2703C7.93926 14.2898 8.02838 14.2899 8.33824 14.2712C8.95848 14.2338 9.42548 14.1447 9.98826 13.9564C10.9454 13.6361 11.7093 13.1611 12.4349 12.435C12.9495 11.9201 13.302 11.4385 13.6012 10.8416C14.3661 9.31528 14.4918 7.60418 13.9564 6.00423C13.6362 5.04742 13.1618 4.28455 12.4349 3.55762C11.9206 3.04329 11.4388 2.69065 10.8416 2.39134C9.31533 1.62638 7.60423 1.50072 6.00428 2.03608C5.04763 2.3562 4.28529 2.83026 3.55747 3.55762C3.04148 4.07328 2.69178 4.5517 2.38826 5.15716C1.81421 6.30234 1.59938 7.56251 1.76397 8.8195C1.91247 9.95372 2.37135 11.0264 3.09927 11.9408C3.27127 12.1569 3.83559 12.7212 4.05167 12.8932Z" fill="currentColor"/>
</g>
<defs>
<clipPath id="clip0_8874_15275">
<rect width="16" height="16" fill="white" transform="translate(0 -0.000732422)"/>
</clipPath>
</defs>
</svg>

<svg xmlns="http://www.w3.org/2000/svg" width="16" height="16" fill="none">
  <g fill="currentColor" clip-path="url(#a)">
    <path d="M7.552 3.225c-.43.071-.848.259-1.2.539-.15.12-.37.35-.487.512-.337.462-.542 1.099-.525 1.632.006.167.012.198.062.304a.698.698 0 0 0 .305.316c.112.059.34.073.465.03a.657.657 0 0 0 .322-.247c.09-.128.106-.18.127-.438.009-.111.028-.252.043-.312a1.41 1.41 0 0 1 .922-.977c.196-.058.54-.058.735 0 .437.13.805.522.926.983.043.165.043.556 0 .704a1.415 1.415 0 0 1-.478.747c-.214.177-.458.268-.788.294-.172.013-.215.023-.31.071a.666.666 0 0 0-.35.504c-.021.146-.02 1.219 0 1.366a.678.678 0 0 0 .373.515c.084.042.12.048.26.048s.175-.006.26-.048a.678.678 0 0 0 .373-.515 4.04 4.04 0 0 0 .016-.399V8.57l.159-.052a3 3 0 0 0 .705-.37c.19-.14.48-.439.612-.633.322-.472.49-1.017.49-1.595.002-1.346-.945-2.49-2.23-2.696a3.403 3.403 0 0 0-.787.002Zm.184 7.053a.973.973 0 0 0-.68.707.97.97 0 0 0 .224.886.844.844 0 0 0 .674.307.844.844 0 0 0 .673-.307.97.97 0 0 0 .224-.886c-.077-.34-.376-.642-.706-.713a1.048 1.048 0 0 0-.409.006Z"/>
    <path fill-rule="evenodd" d="M2.841 14.116c1.346 1.116 2.914 1.748 4.617 1.864a8.014 8.014 0 0 0 5.334-1.58c.33-.25.523-.418.857-.752.333-.333.502-.525.75-.856a8.006 8.006 0 0 0-.283-9.951c-.182-.22-.744-.782-.964-.965C11.796.754 10.23.126 8.502.012A7.998 7.998 0 0 0 3.2 1.592c-.33.25-.522.418-.856.752a7.027 7.027 0 0 0-.751.856 8 8 0 0 0 .283 9.952c.183.22.745.782.965.964Zm1.21-1.223a6.299 6.299 0 0 0 3.565 1.377c.323.02.412.02.722.001a5.945 5.945 0 0 0 1.65-.315 6.014 6.014 0 0 0 2.447-1.521 5.887 5.887 0 0 0 1.166-1.593 6.266 6.266 0 0 0 .355-4.838 6.015 6.015 0 0 0-1.521-2.446 5.88 5.88 0 0 0-1.593-1.167 6.266 6.266 0 0 0-4.838-.355 6.017 6.017 0 0 0-2.447 1.522 5.868 5.868 0 0 0-1.169 1.6 6.3 6.3 0 0 0-.624 3.661 6.32 6.32 0 0 0 1.335 3.122c.172.216.737.78.953.952Z" clip-rule="evenodd"/>
  </g>
  <defs>
    <clipPath id="a">
      <path fill="#fff" d="M0 0h16v16H0z"/>
    </clipPath>
  </defs>
</svg>
